assets/icons/user-add-24.svg

<svg width="24" height="24" viewBox="0 0 24 24" fill="none" xmlns="http://www.w3.org/2000/svg">
<path fill-rule="evenodd" clip-rule="evenodd" d="M9.7981 10C6.51518 10 4.53257 11.2856 3.39037 12.854C2.28856 14.3669 2.05622 16.0216 2.00463 16.6712C1.96254 17.2012 2.21032 17.6971 2.63265 17.9788C3.02205 18.2385 3.8514 18.7375 5.053 19.1747C5.56914 21.3697 7.49725 23 9.7981 23C12.0989 23 14.0271 21.3697 14.5432 19.1747C15.7448 18.7375 16.5741 18.2385 16.9635 17.9788C17.3859 17.6971 17.6337 17.2012 17.5916 16.6712C17.54 16.0216 17.3076 14.3669 16.2058 12.854C15.0636 11.2856 13.081 10 9.7981 10ZM6.19946 17.4568C5.18158 17.138 4.42917 16.7477 3.99054 16.4866C4.07843 15.8947 4.31719 14.9259 4.95517 14.0499C5.70161 13.025 7.08435 12 9.7981 12C12.5118 12 13.8946 13.025 14.641 14.0499C15.279 14.9259 15.5178 15.8947 15.6057 16.4866C15.167 16.7477 14.4146 17.138 13.3967 17.4568C13.0213 17.5744 12.7512 17.911 12.7111 18.3111C12.5598 19.8213 11.3127 21 9.7981 21C8.28349 21 7.03639 19.8213 6.88512 18.3111C6.84504 17.911 6.5749 17.5744 6.19946 17.4568Z" fill="#F2F2F2"/>
<path fill-rule="evenodd" clip-rule="evenodd" d="M9.7981 1C7.64164 1 5.89349 2.79086 5.89349 5C5.89349 7.20914 7.64164 9 9.7981 9C11.9546 9 13.7027 7.20914 13.7027 5C13.7027 2.79086 11.9546 1 9.7981 1ZM7.8458 5C7.8458 3.89543 8.71987 3 9.7981 3C10.8763 3 11.7504 3.89543 11.7504 5C11.7504 6.10457 10.8763 7 9.7981 7C8.71987 7 7.8458 6.10457 7.8458 5Z" fill="#F2F2F2"/>
<path d="M18.0954 4.5C18.6345 4.5 19.0715 4.94772 19.0715 5.5V7.5H21.0238C21.563 7.5 22 7.94772 22 8.5C22 9.05228 21.563 9.5 21.0238 9.5L19.0715 9.5V11.5C19.0715 12.0523 18.6345 12.5 18.0954 12.5C17.5563 12.5 17.1192 12.0523 17.1192 11.5V9.5H15.1669C14.6278 9.5 14.1908 9.05228 14.1908 8.5C14.1908 7.94772 14.6278 7.5 15.1669 7.5H17.1192V5.5C17.1192 4.94772 17.5563 4.5 18.0954 4.5Z" fill="#F2F2F2"/>
</svg>

<svg xmlns="http://www.w3.org/2000/svg" width="24" height="24" viewBox="0 0 24 24"><path fill-rule="evenodd" d="M9.798 10c-3.283 0-5.265 1.286-6.408 2.854-1.101 1.513-1.334 3.168-1.385 3.817-.042.53.205 1.026.628 1.308.39.26 1.218.759 2.42 1.196C5.569 21.37 7.497 23 9.798 23c2.3 0 4.23-1.63 4.745-3.825a11.54 11.54 0 002.42-1.196c.423-.282.67-.778.629-1.308-.052-.65-.284-2.304-1.386-3.817C15.064 11.286 13.08 10 9.798 10zM6.2 17.457a10.49 10.49 0 01-2.208-.97c.087-.592.326-1.561.964-2.437.747-1.025 2.13-2.05 4.843-2.05 2.714 0 4.097 1.025 4.843 2.05.638.876.877 1.845.965 2.437-.439.26-1.191.651-2.21.97a.995.995 0 00-.685.854C12.56 19.821 11.313 21 9.798 21s-2.762-1.179-2.913-2.689a.995.995 0 00-.686-.854zM9.798 1C7.642 1 5.893 2.79 5.893 5s1.749 4 3.905 4c2.157 0 3.905-1.79 3.905-4s-1.748-4-3.905-4zM7.846 5c0-1.105.874-2 1.952-2 1.078 0 1.952.895 1.952 2s-.874 2-1.952 2C8.72 7 7.846 6.105 7.846 5z"/><path d="M18.095 4.5c.54 0 .977.448.977 1v2h1.952c.539 0 .976.448.976 1s-.437 1-.976 1H19.07v2c0 .552-.437 1-.976 1a.988.988 0 01-.976-1v-2h-1.952a.988.988 0 01-.976-1c0-.552.437-1 .976-1h1.952v-2c0-.552.437-1 .976-1z"/></svg>
